_site/presentaciones/04-diagramas-causales/images/sesgo-sistematico.svg

<?xml version="1.0" encoding="UTF-8" standalone="no"?>
<svg
   width="716"
   height="262"
   xml:space="preserve"
   overflow="hidden"
   version="1.1"
   id="svg10"
   sodipodi:docname="sesgo-sistematico.svg"
   inkscape:version="1.4 (86a8ad7, 2024-10-11)"
   xmlns:inkscape="http://www.inkscape.org/namespaces/inkscape"
   xmlns:sodipodi="http://sodipodi.sourceforge.net/DTD/sodipodi-0.dtd"
   xmlns="http://www.w3.org/2000/svg"
   xmlns:svg="http://www.w3.org/2000/svg"><sodipodi:namedview
     id="namedview10"
     pagecolor="#ffffff"
     bordercolor="#000000"
     borderopacity="0.25"
     inkscape:showpageshadow="2"
     inkscape:pageopacity="0.0"
     inkscape:pagecheckerboard="0"
     inkscape:deskcolor="#d1d1d1"
     inkscape:zoom="2.4804469"
     inkscape:cx="358.20158"
     inkscape:cy="130.8232"
     inkscape:window-width="1920"
     inkscape:window-height="1057"
     inkscape:window-x="-8"
     inkscape:window-y="-8"
     inkscape:window-maximized="1"
     inkscape:current-layer="svg10" /><defs
     id="defs1"><clipPath
       id="clip0"><rect
         x="177"
         y="201"
         width="716"
         height="262"
         id="rect1" /></clipPath></defs><g
     clip-path="url(#clip0)"
     transform="translate(-177 -201)"
     id="g10"><text
       font-family="Calibri,Calibri_MSFontService,sans-serif"
       font-weight="700"
       font-size="85"
       transform="matrix(1.02575 0 0 1.02575 507.678 375)"
       id="text1">A</text><text
       font-family="Calibri,Calibri_MSFontService,sans-serif"
       font-weight="700"
       font-size="85"
       transform="matrix(1.02575 0 0 1.02575 791.127 375)"
       id="text2">Y</text><text
       font-family="Calibri,Calibri_MSFontService,sans-serif"
       font-weight="700"
       font-size="85"
       transform="matrix(1.02575 0 0 1.02575 198.6 375)"
       id="text3">L</text><path
       d="m 233.549,288.094 c 11.492,-6.463 22.983,-12.575 34.474,-18.324 7.018,-3.511 14.036,-6.887 21.054,-10.124 6.964,-3.213 13.928,-6.289 20.892,-9.226 6.924,-2.92 13.849,-5.703 20.773,-8.345 5.987,-2.285 11.975,-4.465 17.963,-6.539 5.83,-2.018 11.66,-3.936 17.49,-5.751 6.113,-1.902 12.227,-3.692 18.34,-5.366 7.118,-1.95 14.236,-3.745 21.354,-5.38 7.292,-1.675 14.589,-3.183 21.881,-4.521 8.638,-1.585 17.271,-2.931 25.909,-4.032 8.382,-1.07 16.764,-1.909 25.149,-2.514 7.932,-0.572 15.864,-0.933 23.8,-1.081 9.522,-0.176 19.047,-0.043 28.569,0.406 7.75,0.366 15.499,0.941 23.249,1.73 9.642,0.981 19.28,2.293 28.922,3.943 10.793,1.847 21.582,4.117 32.375,6.822 9.39,2.353 18.78,5.035 28.169,8.053 5.614,1.803 11.224,3.726 16.834,5.771 6.451,2.35 12.902,4.861 19.353,7.534 7.304,3.028 14.612,6.264 21.916,9.712 9.075,4.285 18.155,8.897 27.231,13.841 7.191,3.919 14.387,8.047 21.578,12.387 7.847,4.736 10.05386,5.69347 17.89986,10.93947"
       stroke="#000000"
       stroke-width="11.6306"
       fill="none"
       id="path3"
       sodipodi:nodetypes="ccccccccsscccccsccccccsc" /><path
       d="M762.766 284.304 746.633 287.509 786.938 300.465 759.562 268.171Z"
       fill-rule="evenodd"
       id="path4" /><path
       d="m 259.09,347.599 h 29.091 27.768 33.057 27.109 34.376 28.433 l 21.4791,0"
       stroke="#000000"
       stroke-width="11.6306"
       fill="none"
       id="path5"
       sodipodi:nodetypes="cccccccc" /><path
       d="M459.347 347.599 447.716 359.23 488.423 347.599 447.716 335.969Z"
       fill-rule="evenodd"
       id="path6" /><text
       font-family="Calibri,Calibri_MSFontService,sans-serif"
       font-weight="400"
       font-size="37"
       transform="matrix(0.999999 0 0 0.999999 173.864 444)"
       id="text6">Fumador</text><text
       font-family="Calibri,Calibri_MSFontService,sans-serif"
       font-weight="400"
       font-size="37"
       transform="matrix(0.999999 0 0 0.999999 491.775 432)"
       id="text7">Dedos </text><text
       font-family="Calibri,Calibri_MSFontService,sans-serif"
       font-weight="400"
       font-size="37"
       transform="matrix(0.999999 0 0 0.999999 470.201 463)"
       id="text8">amarillos</text><text
       font-family="Calibri,Calibri_MSFontService,sans-serif"
       font-weight="400"
       font-size="37"
       transform="matrix(0.999999 0 0 0.999999 760.398 425)"
       id="text9">Cancer </text><text
       font-family="Calibri,Calibri_MSFontService,sans-serif"
       font-weight="400"
       font-size="37"
       transform="matrix(0.999999 0 0 0.999999 732.371 455)"
       id="text10">pulmornar</text></g></svg>

<svg width="716" height="262" xmlns="http://www.w3.org/2000/svg" xmlns:xlink="http://www.w3.org/1999/xlink" xml:space="preserve" overflow="hidden"><defs><clipPath id="clip0"><rect x="177" y="201" width="716" height="262"/></clipPath></defs><g clip-path="url(#clip0)" transform="translate(-177 -201)"><text font-family="Calibri,Calibri_MSFontService,sans-serif" font-weight="700" font-size="85" transform="matrix(1.02575 0 0 1.02575 507.678 375)">A</text><text font-family="Calibri,Calibri_MSFontService,sans-serif" font-weight="700" font-size="85" transform="matrix(1.02575 0 0 1.02575 791.127 375)">Y</text><text font-family="Calibri,Calibri_MSFontService,sans-serif" font-weight="700" font-size="85" transform="matrix(1.02575 0 0 1.02575 198.6 375)">L</text><path d="M233.549 288.094C245.041 281.631 256.532 275.519 268.023 269.77 275.041 266.259 282.059 262.883 289.077 259.646 296.041 256.433 303.005 253.357 309.969 250.42 316.893 247.5 323.818 244.717 330.742 242.075 336.729 239.79 342.717 237.61 348.705 235.536 354.535 233.518 360.365 231.6 366.195 229.785 372.308 227.883 378.422 226.093 384.535 224.419 391.653 222.469 398.771 220.674 405.889 219.039 413.181 217.364 420.478 215.856 427.77 214.518 436.408 212.933 445.041 211.587 453.679 210.486 462.061 209.416 470.443 208.577 478.828 207.972 486.76 207.4 494.692 207.039 502.628 206.891 512.15 206.715 521.675 206.848 531.197 207.297 538.947 207.663 546.696 208.238 554.446 209.027 564.088 210.008 573.726 211.32 583.368 212.97 594.161 214.817 604.95 217.087 615.743 219.792 625.133 222.145 634.523 224.827 643.912 227.845 649.526 229.648 655.136 231.571 660.746 233.616 667.197 235.966 673.648 238.477 680.099 241.15 687.403 244.178 694.711 247.414 702.015 250.862 711.09 255.147 720.17 259.759 729.246 264.703 736.437 268.622 743.633 272.75 750.824 277.09 758.671 281.826 766.522 286.815 774.368 292.061" stroke="#000000" stroke-width="11.6306" fill="none"/><path d="M762.766 284.304 746.633 287.509 786.938 300.465 759.562 268.171Z" fill-rule="evenodd"/><path d="M259.09 347.599 288.181 347.599 315.949 347.599 349.006 347.599 376.115 347.599 410.491 347.599 438.924 347.599 473.304 347.599" stroke="#000000" stroke-width="11.6306" fill="none"/><path d="M459.347 347.599 447.716 359.23 488.423 347.599 447.716 335.969Z" fill-rule="evenodd"/><text font-family="Calibri,Calibri_MSFontService,sans-serif" font-weight="400" font-size="37" transform="matrix(0.999999 0 0 0.999999 173.864 444)">Fumador</text><text font-family="Calibri,Calibri_MSFontService,sans-serif" font-weight="400" font-size="37" transform="matrix(0.999999 0 0 0.999999 491.775 432)">Dedos </text><text font-family="Calibri,Calibri_MSFontService,sans-serif" font-weight="400" font-size="37" transform="matrix(0.999999 0 0 0.999999 470.201 463)">amarillos</text><text font-family="Calibri,Calibri_MSFontService,sans-serif" font-weight="400" font-size="37" transform="matrix(0.999999 0 0 0.999999 760.398 425)">Cancer </text><text font-family="Calibri,Calibri_MSFontService,sans-serif" font-weight="400" font-size="37" transform="matrix(0.999999 0 0 0.999999 732.371 455)">pulmornar</text></g></svg>
